gama.ui.shared/icons_svg/light/agents/agent.actions.svg

<svg height="25" viewBox="-872.104 -4045.5 25 25" width="25" xmlns="http://www.w3.org/2000/svg"><g fill="none"><circle cx="-859.604" cy="-4033" fill="#fff" r="12"/><circle cx="-859.604" cy="-4033" r="12" stroke="#000" stroke-linecap="round" stroke-linejoin="round" stroke-width=".25"/><path d="m-853.8836-4028.3684-1.8075-1.8076c-.1644-.1644-.1644-.431 0-.5954.1644-.1646.431-.1646.5955 0l2.5263 2.5264c.1644.1643.1644.431 0 .5954l-2.5263 2.5263c-.1645.1643-.4311.1643-.5955 0-.1644-.1645-.1644-.4311 0-.5957l1.8075-1.8073h-4.0361c-.2325 0-.421-.1887-.421-.4211 0-.2326.1885-.421.421-.421zm-4.4213-4.5766c-.5252.235-1.1073.366-1.72.366-.6115 0-1.1925-.1303-1.7169-.3647l-3.4374 1.5625c-.451.2049-.7405.6546-.7405 1.1499v.5997c0 .6976.5656 1.2632 1.2632 1.2632h4.2105c.2325 0 .4211.1884.4211.421 0 .2324-.1886.4211-.4211.4211h-4.2105c-1.1627 0-2.1053-.9427-2.1053-2.1053v-.5997c0-.8257.4826-1.5749 1.2341-1.9167l2.9109-1.323c-.9853-.7707-1.6187-1.9706-1.6187-3.3185 0-2.3255 1.8852-4.2105 4.2106-4.2105s4.2105 1.885 4.2105 4.2105c0 1.3415-.6273 2.5365-1.6045 3.3075l2.1911.937c.2138.0914.313.339.2216.5527-.0915.2138-.3389.313-.5527.2213zm-1.72-.476c1.8603 0 3.3684-1.508 3.3684-3.3685s-1.5081-3.3685-3.3684-3.3685c-1.8604 0-3.3685 1.508-3.3685 3.3685s1.5081 3.3685 3.3685 3.3685z" fill="#518738"/></g></svg>

<?xml version="1.0" encoding="UTF-8" standalone="no"?>
<!DOCTYPE svg PUBLIC "-//W3C//DTD SVG 1.1//EN" "http://www.w3.org/Graphics/SVG/1.1/DTD/svg11.dtd">
<svg version="1.1" xmlns="http://www.w3.org/2000/svg" xmlns:xl="http://www.w3.org/1999/xlink" xmlns:dc="http://purl.org/dc/elements/1.1/" viewBox="-872.1039 -4045.5 24.999996 25" width="24.999996" height="25">
  <defs/>
  <g id="SOURCES" stroke-dasharray="none" fill="none" stroke="none" fill-opacity="1" stroke-opacity="1">
    <title>SOURCES</title>
    <g id="SOURCES_Calque_2">
      <title>Calque 2</title>
      <g id="Graphic_8785">
        <circle cx="-859.6039" cy="-4033" r="12.0000182688381" fill="white"/>
        <circle cx="-859.6039" cy="-4033" r="12.0000182688381" stroke="black" stroke-linecap="round" stroke-linejoin="round" stroke-width=".25"/>
      </g>
      <g id="Graphic_8798">
        <path d="M -853.8836 -4028.3684 L -855.6911 -4030.176 C -855.8555 -4030.3404 -855.8555 -4030.607 -855.6911 -4030.7714 C -855.5267 -4030.936 -855.2601 -4030.936 -855.0956 -4030.7714 L -852.5693 -4028.245 C -852.4049 -4028.0807 -852.4049 -4027.814 -852.5693 -4027.6496 L -855.0956 -4025.1233 C -855.2601 -4024.959 -855.5267 -4024.959 -855.6911 -4025.1233 C -855.8555 -4025.2878 -855.8555 -4025.5544 -855.6911 -4025.719 L -853.8836 -4027.5263 L -857.9197 -4027.5263 C -858.1522 -4027.5263 -858.3407 -4027.715 -858.3407 -4027.9474 C -858.3407 -4028.18 -858.1522 -4028.3684 -857.9197 -4028.3684 L -853.8836 -4028.3684 Z M -858.3049 -4032.945 C -858.8301 -4032.71 -859.4122 -4032.579 -860.0249 -4032.579 C -860.6364 -4032.579 -861.2174 -4032.7093 -861.7418 -4032.9437 L -865.1792 -4031.3812 C -865.6302 -4031.1763 -865.9197 -4030.7266 -865.9197 -4030.2313 L -865.9197 -4029.6316 C -865.9197 -4028.934 -865.3541 -4028.3684 -864.6565 -4028.3684 L -860.446 -4028.3684 C -860.2135 -4028.3684 -860.0249 -4028.18 -860.0249 -4027.9474 C -860.0249 -4027.715 -860.2135 -4027.5263 -860.446 -4027.5263 L -864.6565 -4027.5263 C -865.8192 -4027.5263 -866.7618 -4028.469 -866.7618 -4029.6316 L -866.7618 -4030.2313 C -866.7618 -4031.057 -866.2792 -4031.8062 -865.5277 -4032.148 L -862.6168 -4033.471 C -863.6021 -4034.2417 -864.2355 -4035.4416 -864.2355 -4036.7895 C -864.2355 -4039.115 -862.3503 -4041 -860.0249 -4041 C -857.6995 -4041 -855.8144 -4039.115 -855.8144 -4036.7895 C -855.8144 -4035.448 -856.4417 -4034.253 -857.4189 -4033.482 L -855.2278 -4032.545 C -855.014 -4032.4536 -854.9148 -4032.206 -855.0062 -4031.9923 C -855.0977 -4031.7785 -855.3451 -4031.6793 -855.5589 -4031.771 L -858.3049 -4032.945 Z M -860.0249 -4033.421 C -858.1646 -4033.421 -856.6565 -4034.929 -856.6565 -4036.7895 C -856.6565 -4038.65 -858.1646 -4040.158 -860.0249 -4040.158 C -861.8853 -4040.158 -863.3934 -4038.65 -863.3934 -4036.7895 C -863.3934 -4034.929 -861.8853 -4033.421 -860.0249 -4033.421 Z" fill="#518738"/>
      </g>
    </g>
  </g>
</svg>
